icon/lg/cloudlinux.svg

<?xml version="1.0" encoding="UTF-8" standalone="no"?>
<svg viewBox="0 0 256 255" version="1.1" xmlns="http://www.w3.org/2000/svg" xmlns:xlink="http://www.w3.org/1999/xlink" preserveAspectRatio="xMidYMid" height="1em" width="1em">
  <g>
    <path d="M99.7043277,5.00380419 C103.105525,4.11778631 106.352934,3.30221331 109.583477,2.42512506 C116.052499,0.670948565 122.653481,-0.0454063151 129.332845,0.00221838608 C144.352485,0.110366145 158.481146,3.74373397 171.39637,11.4361154 C193.542848,24.6261733 207.113904,43.978669 212.231575,69.254487 C212.966781,72.8878548 212.313926,76.4527622 211.719609,79.998818 C208.787714,97.486013 200.944521,112.438185 188.344811,124.902958 C187.837806,125.40401 187.313934,125.888194 186.794031,126.376347 C186.739461,126.427941 186.661079,126.453737 186.442799,126.575776 C186.95278,124.823584 187.438949,123.192438 187.902298,121.553354 C189.881699,114.542601 190.965161,107.39592 191.242972,100.114301 C191.730133,87.3022644 189.732872,74.8940454 184.935676,63.0136668 C183.628973,59.7761793 181.835109,56.6339412 179.74756,53.8340056 C174.800544,47.1953207 169.924965,40.4365819 164.336008,34.3555028 C150.493095,19.2912145 133.213266,10.2068028 113.088853,6.62205185 C108.752029,5.84914264 104.331861,5.55049607 99.7043277,5.00380419 Z M169.187775,86.8359392 C154.508453,59.5311105 132.403646,42.3385934 101.860338,36.764519 C71.3279433,31.1934211 44.6471966,39.5346891 21.3378819,59.8168587 C22.4263048,57.864246 23.440314,55.8650007 24.6160489,53.9669579 C37.5947721,33.0140738 56.0701796,19.5997829 80.2545982,14.8333441 C104.581891,10.0391242 127.214538,14.8631095 147.69812,28.9739116 C149.694389,30.3490749 151.269973,32.4455539 152.772135,34.4130494 C161.266199,45.5433389 166.608103,58.0477995 168.446615,71.9393295 C169.052838,76.5192383 169.043908,81.1805059 169.304852,85.8050628 C169.320727,86.101725 169.239368,86.4033482 169.187775,86.8359392 Z M126.37416,69.965881 C97.3290458,61.1553113 69.6253602,64.1626127 44.3644249,81.6507999 C19.1233333,99.1250965 6.46607679,123.912761 4.56406529,154.591998 C4.32098088,153.854808 4.12056026,153.261483 3.92906927,152.665182 C3.72368775,152.024233 3.5093766,151.385269 3.32780742,150.737374 C1.00709542,142.437778 -0.285716781,133.971495 0.0536092149,125.36333 C0.91383038,103.5661 8.70344557,84.5955939 23.8729051,68.8189194 C34.9416794,57.3076323 48.2815566,49.5924307 63.7556158,45.620729 C66.246983,44.9817643 68.7750609,44.3170028 71.3219902,44.1136057 C73.5841635,43.9330287 75.9167817,44.2386205 78.1839159,44.5660403 C94.3971501,46.9115569 108.67067,53.4976562 120.912202,64.3947831 C122.884659,66.150944 124.62296,68.1680485 126.37416,69.965881 Z M195.787162,22.6636387 C205.08787,27.1988993 213.173155,33.2492207 220.170017,40.7431659 C231.689242,53.08094 238.991696,67.5846459 241.699359,84.2314633 C245.427976,107.158788 240.729005,128.318046 227.318683,147.349075 C225.571452,149.827544 222.852875,151.714673 220.342657,153.545247 C208.956384,161.84782 196.200902,166.777969 182.208169,168.371412 C177.982469,168.85262 173.704184,168.876432 169.450703,168.967713 C196.388424,154.395547 213.895463,132.637011 219.382225,102.3606 C224.865019,72.1080003 216.185417,45.6246978 195.787162,22.6636387 Z M85.9298751,87.2099915 C59.0735123,101.636307 41.5803643,123.340273 36.1015393,153.587911 C30.6346205,183.765104 39.2239338,210.223603 59.4535178,233.063615 C59.3870416,233.160849 59.3205655,233.259075 59.2540893,233.356309 C55.6316355,231.113979 51.8752372,229.059172 48.4105402,226.595586 C31.0245477,214.231023 19.5688227,197.6864 14.8341337,176.880359 C9.18465349,152.053007 13.7834137,129.041346 28.4111422,108.11922 C28.9032641,107.415763 29.5551272,106.800611 30.2169121,106.243997 C42.5943736,95.8300624 56.8182843,89.5902344 72.8707852,87.6584575 C77.1867737,87.1395467 81.5613009,87.1167265 85.9100315,86.8666968 C85.9159846,86.9807977 85.9229298,87.0948985 85.9298751,87.2099915 Z M154.037167,250.0319 C151.656924,250.696661 149.289579,251.415 146.892469,252.017254 C139.224892,253.946055 131.408488,254.81719 123.537514,254.340943 C94.391197,252.575852 71.6970347,239.44731 55.6107997,215.083306 C49.3709717,205.631788 45.4597931,195.178166 43.7076009,183.999259 C43.3008066,181.404705 43.7204993,178.620645 44.1005047,175.972513 C46.1781323,161.525361 51.7531989,148.540685 60.8772979,137.146475 C63.3250091,134.090557 66.1616554,131.346183 68.8256621,128.463897 C69.0052469,128.270421 69.2364251,128.124571 69.4924079,127.916213 C60.6064324,157.209373 63.6345697,184.911074 81.1376395,210.16804 C98.6417016,235.425999 123.444249,248.093177 154.037167,250.0319 Z M86.6382925,168.512302 C101.149936,195.514515 122.879698,212.944164 153.06979,218.418028 C183.270796,223.893876 209.736239,215.260907 232.713173,195.050174 C231.651539,196.969053 230.661342,198.931587 229.517357,200.799865 C217.343293,220.687146 200.054534,233.886134 177.385176,239.400677 C152.500278,245.452983 129.323915,241.020909 108.161681,226.494383 C107.164539,225.809778 106.257685,224.930706 105.479815,223.999047 C95.9300702,212.570111 89.9353109,199.512013 87.5491149,184.796973 C86.7146905,179.650529 86.4130674,174.480272 86.5559415,169.276281 C86.5609024,169.080822 86.5966209,168.885362 86.6382925,168.512302 Z M251.826553,100.0002 C252.838578,104.428305 254.007367,108.827637 254.827901,113.290469 C256.163377,120.547282 256.283431,127.893393 255.562115,135.219659 C254.406224,146.964109 250.972285,158.032883 245.109486,168.298983 C235.497234,185.129354 221.757507,197.35005 203.91908,204.942222 C197.949125,207.483198 191.759899,209.368342 185.337509,210.219634 C182.799509,210.556975 180.114667,210.178954 177.541941,209.810855 C164.972989,208.009054 153.445826,203.482723 142.992205,196.260635 C138.276367,193.002312 133.954425,189.28064 130.027372,185.103557 C129.82199,184.885277 129.643398,184.641201 129.450915,184.406054 C158.692481,193.278139 186.390214,190.282743 211.655118,172.803486 C236.894225,155.342087 249.571325,130.567321 251.460438,100.112317 C251.582476,100.075606 251.704515,100.037903 251.826553,100.0002 Z M93.7075841,164.848176 C99.1100111,169.758481 104.977771,173.994103 111.295982,177.619534 C111.684917,177.843767 112.00936,178.2456 112.262366,178.630566 C120.01031,190.439508 129.951966,199.943612 142.12603,207.109146 C142.34431,207.238129 142.551676,207.384972 142.691574,207.613174 C120.630423,199.934683 104.316978,185.654218 93.7075841,164.848176 Z M162.139319,89.4483525 C160.392088,87.9799242 158.732168,86.3874733 156.878774,85.06688 C153.041017,82.3324284 149.096104,79.7487883 145.208738,77.0837894 C144.699749,76.7345416 144.154049,76.3446144 143.823652,75.8435628 C136.139209,64.1437613 126.303716,54.6962112 114.277486,47.5316702 C114.012574,47.3739134 113.757583,47.1992894 113.582959,46.9274318 C135.456588,54.5771494 151.643033,68.7514511 162.139319,89.4483525 Z M209.285789,111.167201 C201.502127,133.155922 187.333778,149.41182 166.571393,159.96466 C166.767844,159.708677 166.946437,159.437812 167.16174,159.199688 C171.651361,154.240766 175.541703,148.850245 178.882378,143.055907 C179.186977,142.528066 179.626514,142.006179 180.130542,141.675783 C191.971233,133.896089 201.500142,123.920699 208.692464,111.7129 C208.791682,111.544229 208.90876,111.38548 209.023853,111.225739 C209.037743,111.206888 209.083384,111.210857 209.285789,111.167201 Z M89.3866347,94.3923918 C86.909158,97.562411 84.3443694,100.683813 81.9661109,103.941144 C80.2873402,106.240028 78.8883646,108.74231 77.3038511,111.113623 C76.8355415,111.813111 76.2561077,112.518551 75.5655495,112.977931 C64.0562467,120.637571 54.7218053,130.36194 47.6425919,142.24331 C47.4491165,142.569738 47.2278601,142.880291 46.8905185,143.394241 C53.0043395,123.624036 68.9665518,104.159424 89.3866347,94.3923918 Z M59.5388454,82.0159226 C80.4371596,71.8510254 101.927806,70.4480811 123.989949,77.5709504 C117.6132,77.9182139 111.306896,78.7685132 105.138505,80.4066045 C103.039049,80.9642104 101.082468,80.956273 98.9730901,80.5643614 C85.9655936,78.1474078 73.0374716,78.5760301 60.2174974,81.8968608 C59.9962409,81.9544073 59.7650627,81.9772275 59.5388454,82.0159226 Z M76.9546033,130.534579 C77.445733,134.582679 77.8564961,138.713129 78.4785937,142.810838 C78.8814193,145.466907 79.5352668,148.092219 80.193083,150.701656 C80.4818077,151.849609 80.5234793,152.920173 80.286348,154.075072 C78.6055929,162.241716 77.9457924,170.501625 78.7822012,178.797253 C79.3368305,184.298898 80.3845739,189.750934 81.0989445,194.483639 C78.6323818,190.479195 73.6248429,177.267309 72.7576765,163.368834 C72.0552121,152.114522 73.4095396,141.14695 76.9546033,130.534579 Z M174.635842,58.9913639 C184.732279,80.2786131 186.146137,101.831767 179.138361,123.919707 C178.554958,119.435047 178.015211,114.930544 177.363348,110.441916 C177.090498,108.566693 176.725376,106.676588 176.13602,104.88074 C175.49011,102.91126 175.611156,101.038022 175.99513,99.0615969 C177.815783,89.6854838 178.122367,80.2508321 176.735298,70.7943523 C176.173723,66.9625483 175.385931,63.1644783 174.635842,58.9913639 Z M131.919462,176.831742 C139.193142,176.562861 146.302121,175.276994 153.346608,173.488091 C154.269337,173.253936 155.367682,173.594254 156.362839,173.785745 C169.695771,176.355495 182.927501,175.883216 196.065965,172.50087 C196.288214,172.443324 196.513439,172.398676 196.75057,172.463168 C175.741132,182.596315 154.127455,184.005212 131.919462,176.831742 Z" fill="#265597"/>
  </g>
</svg>

<svg width="256" height="255" xmlns="http://www.w3.org/2000/svg" preserveAspectRatio="xMidYMid"><path d="M99.704 5.004c3.402-.886 6.649-1.702 9.88-2.579 6.468-1.754 13.07-2.47 19.749-2.423 15.02.108 29.148 3.742 42.063 11.434 22.147 13.19 35.718 32.543 40.836 57.818.735 3.634.082 7.199-.512 10.745-2.932 17.487-10.775 32.44-23.375 44.904-.507.501-1.031.985-1.551 1.473-.055.052-.133.078-.351.2.51-1.752.996-3.384 1.46-5.023 1.979-7.01 3.062-14.157 3.34-21.439.487-12.812-1.51-25.22-6.307-37.1-1.307-3.238-3.1-6.38-5.188-9.18-4.947-6.639-9.823-13.397-15.412-19.478-13.843-15.065-31.123-24.15-51.247-27.734-4.337-.773-8.757-1.072-13.385-1.618Zm69.484 81.832c-14.68-27.305-36.784-44.497-67.328-50.071-30.532-5.572-57.213 2.77-80.522 23.052 1.088-1.953 2.102-3.952 3.278-5.85C37.595 33.014 56.07 19.6 80.255 14.833c24.327-4.794 46.96.03 67.443 14.14 1.996 1.376 3.572 3.473 5.074 5.44 8.494 11.13 13.836 23.635 15.675 37.526.606 4.58.597 9.242.858 13.866.016.297-.066.598-.117 1.03Zm-42.814-16.87c-29.045-8.81-56.749-5.803-82.01 11.685-25.24 17.474-37.898 42.262-39.8 72.941-.243-.737-.443-1.33-.635-1.927-.205-.64-.42-1.28-.601-1.928-2.32-8.3-3.614-16.766-3.274-25.374.86-21.797 8.65-40.767 23.819-56.544C34.942 57.308 48.282 49.592 63.756 45.62c2.491-.64 5.02-1.304 7.566-1.507 2.262-.181 4.595.125 6.862.452 16.213 2.346 30.487 8.932 42.728 19.829 1.973 1.756 3.711 3.773 5.462 5.57Zm69.413-47.302c9.3 4.535 17.386 10.585 24.383 18.08 11.52 12.337 18.822 26.84 21.53 43.487 3.728 22.928-.971 44.087-14.381 63.118-1.748 2.479-4.466 4.366-6.976 6.196-11.387 8.303-24.142 13.233-38.135 14.826-4.226.482-8.504.505-12.757.597 26.937-14.572 44.444-36.331 49.931-66.607 5.483-30.253-3.197-56.736-23.595-79.697ZM85.93 87.21c-26.856 14.426-44.35 36.13-49.828 66.378-5.467 30.177 3.122 56.636 23.352 79.476l-.2.292c-3.622-2.242-7.379-4.297-10.843-6.76-17.386-12.365-28.842-28.91-33.577-49.716-5.65-24.827-1.05-47.839 13.577-68.76.492-.704 1.144-1.32 1.806-1.876C42.594 95.83 56.818 89.59 72.87 87.658c4.316-.518 8.69-.541 13.039-.791l.02.343Zm68.107 162.822c-2.38.665-4.747 1.383-7.145 1.985-7.667 1.93-15.484 2.8-23.354 2.324-29.147-1.765-51.841-14.894-67.927-39.258-6.24-9.451-10.151-19.905-11.903-31.084-.407-2.594.012-5.378.393-8.026 2.077-14.448 7.652-27.432 16.776-38.827 2.448-3.055 5.285-5.8 7.949-8.682.18-.194.41-.34.666-.548-8.886 29.293-5.857 56.995 11.646 82.252 17.504 25.258 42.306 37.925 72.9 39.864Zm-67.399-81.52c14.512 27.003 36.242 44.432 66.432 49.906 30.2 5.476 56.666-3.157 79.643-23.368-1.061 1.92-2.052 3.882-3.196 5.75-12.174 19.887-29.462 33.086-52.132 38.6-24.885 6.053-48.061 1.62-69.223-12.906-.997-.684-1.904-1.563-2.682-2.495-9.55-11.429-15.545-24.487-17.93-39.202-.835-5.146-1.137-10.317-.994-15.52.005-.196.04-.392.082-.765ZM251.827 100c1.012 4.428 2.18 8.828 3 13.29 1.336 7.257 1.456 14.603.735 21.93-1.156 11.744-4.59 22.813-10.453 33.079-9.612 16.83-23.351 29.051-41.19 36.643-5.97 2.541-12.16 4.426-18.581 5.278-2.538.337-5.223-.041-7.796-.41-12.569-1.8-24.096-6.327-34.55-13.55a80.764 80.764 0 0 1-12.965-11.156c-.205-.219-.384-.463-.576-.698 29.241 8.872 56.94 5.877 82.204-11.603 25.24-17.46 37.916-42.236 39.805-72.69l.367-.113Zm-158.12 64.848c5.403 4.91 11.27 9.146 17.589 12.772.389.224.713.626.966 1.01 7.748 11.81 17.69 21.314 29.864 28.48.218.128.426.275.566.503-22.062-7.678-38.375-21.959-48.984-42.765Zm68.432-75.4c-1.747-1.468-3.407-3.06-5.26-4.381-3.838-2.735-7.783-5.318-11.67-7.983-.51-.35-1.055-.74-1.385-1.24-7.685-11.7-17.52-21.148-29.547-28.312-.264-.158-.52-.333-.694-.605 21.874 7.65 38.06 21.824 48.556 42.521Zm47.147 21.72c-7.784 21.988-21.952 38.244-42.715 48.797.197-.256.375-.527.59-.765 4.49-4.96 8.38-10.35 11.721-16.144.305-.528.745-1.05 1.249-1.38 11.84-7.78 21.37-17.755 28.561-29.963.1-.169.217-.328.332-.487.014-.02.06-.015.262-.059Zm-119.9-16.776c-2.477 3.17-5.042 6.292-7.42 9.55-1.679 2.298-3.078 4.8-4.662 7.172-.468.7-1.048 1.405-1.738 1.864-11.51 7.66-20.844 17.384-27.923 29.265-.194.327-.415.637-.752 1.151 6.113-19.77 22.076-39.235 42.496-49.002ZM59.54 82.016c20.898-10.165 42.389-11.568 64.45-4.445-6.376.347-12.682 1.198-18.85 2.836-2.1.557-4.057.55-6.166.157-13.007-2.417-25.936-1.988-38.756 1.333-.22.057-.452.08-.678.119Zm17.416 48.519c.49 4.048.901 8.178 1.524 12.276.402 2.656 1.056 5.281 1.714 7.89.289 1.149.33 2.22.093 3.374-1.68 8.167-2.34 16.427-1.504 24.722.555 5.502 1.603 10.954 2.317 15.687-2.467-4.005-7.474-17.217-8.341-31.115-.703-11.254.652-22.222 4.197-32.834Zm97.68-71.544c10.097 21.288 11.511 42.84 4.503 64.929-.583-4.485-1.123-8.99-1.775-13.478-.273-1.875-.638-3.765-1.227-5.561-.646-1.97-.525-3.843-.14-5.82 1.82-9.376 2.126-18.81.74-28.267-.562-3.831-1.35-7.63-2.1-11.803Zm-42.716 117.84c7.274-.268 14.383-1.554 21.428-3.343.922-.234 2.02.106 3.016.298 13.333 2.57 26.565 2.097 39.703-1.285.222-.058.447-.102.685-.038-21.01 10.133-42.624 11.542-64.832 4.369Z" fill="#265597"/></svg>
